Icons/TM_Icons/more icons/movie.svg

<svg xmlns="http://www.w3.org/2000/svg" width="400" height="200" viewBox="-489 -709 3018 1509"><path fill="currentColor" d="M1638-518 381-60l-70-192 1257-457zm91 1318H383V-50h1346zM1561-517v-163l-89 32v164zm-177 65v-164l-89 32v165zm-183 63v-162l-89 32v163zm503 519-56-154h-95l56 154zm-194 0-56-154h-95l56 154zm-487-450v-164l-89 32v164zm300 450-56-154h-95l56 154zM840-257v-163l-90 32v164zm289 387-56-154h-95l56 154zM665-190v-164l-90 33v163zm273 320L882-24h-95l56 154zM481-127v-163l-89 32v164zm264 257L688-24h-94l55 154zm-189 0L499-24h-95l56 154z"/></svg>

<?xml version='1.0' encoding='utf-8'?>
<ns0:svg xmlns:ns0="http://www.w3.org/2000/svg" version="1.1" viewBox="265.5 0.0 1509.0 1509.0" role="img" focusable="false" preserveAspectRatio="xMidYMid meet">
   <ns0:path fill="currentColor" d="M1638 -518l-1257 458l-70 -192l1257 -457zM1729 800h-1346v-850h1346v850zM1561 -517v-163l-89 32v164zM1384 -452v-164l-89 32v165zM1201 -389v-162l-89 32v163zM1704 130l-56 -154h-95l56 154h95zM1510 130l-56 -154h-95l56 154h95zM1023 -320v-164l-89 32v164z M1323 130l-56 -154h-95l56 154h95zM840 -257v-163l-90 32v164zM1129 130l-56 -154h-95l56 154h95zM665 -190v-164l-90 33v163zM938 130l-56 -154h-95l56 154h95zM481 -127v-163l-89 32v164zM745 130l-57 -154h-94l55 154h96zM556 130l-57 -154h-95l56 154h96z" />
</ns0:svg>
